X: 1
T: The Pilgrim of Love
R: song
M: C
L: 1/8
Z: 2010 John Chambers <jc:trillian.mit.edu>
B: Anonymous manuscript tune book (1800-1840) p.26
F: http://www.asaplive.com/archive/browse_by_collection.asp
N: The asaplive.com web site is complex, and links to its files don't usually work.
K: D
A2 | d2dd d2ef | agfe dcBA | f2ed cBAG | FAdf | e2zA |
fdd2 d2ef | agfe dcBA | Afd2 HB2 B>g | fedc d2 |[| zd | e2 ee
a^gfe | edfd B2zB | caec BfdB | AcTB2 HA2 a> {^g}=g |
gfed d2ef | agfe dcBA | f2dd HB2 B{a}Hg | Hfe[ac]c d2 || d/e/f/g/ |
^g/a/b/a/ fd a/b/c'/b/ =g>g | fedc d2 |] 
